X:1
T:Puer Nobis Nascitur
T:Puer Nobis Nascitur
T:Public  domain
T:Public  domain
Z:Public  domain
%%score 1 { ( 2 3 ) ( 4 5 ) }
L:1/8
Q:1/4=130
M:3/4
K:D
V:1 treble nm="P1"
V:2 treble nm="P2"
V:3 treble 
V:4 bass transpose=-12 nm="P3"
V:5 bass transpose=-12 
V:1
"^Editor: John Henry Fowler""^( Revision: 11 - 18 - 2007 )" D2 D4 | E2 F4 | G2 F4 | E2 D4 | D2 A4 | %5
 A2 A2"^George Radcliff Woodward" B2 | c2"^( 1834 - 1934 )" d4 | d2 d4 | A2 d4 | d2 c4 | A2 B4 | %11
 B2 A4 | G2 A4 | F2 E4 | F2 D4 | C2 D4 |] %16
V:2
 [DF]2 [B,F]4 | A2 A4 | [B,D]2 A,2 G,2 | [A,A]2 [DF]4 | d2 d4 | [DA]2 [CA]4 | [A,A]2 [DA]4 | %7
 [DB]2 [DA]4 | A2 B4 | B2 A2 G2 | [DF]2 [G,G]4 | [B,G]2 [DF]4 | [EG]2 [CE]4 | A2 A4 | A2 G2 F2 | %15
 E2 [DF]4 |] %16
V:3
 x6 | A,2 D2 C2 | x6 | x6 | G2 F2 E2 | x6 | x6 | x6 | C2 B,2 A,2 | ^G,2 A,4 | x6 | x6 | x6 | %13
 D2 A,2 G,2 | F,2 G,4 | A,2 D,4 |] %16
V:4
 [A,D]2 [B,D]4 | [CE]2 [DF]4 | G2 F4 | [CE]2 D4 | D2 A4 | A2 A2 B2 | [Ec]2 [Fd]4 | [Gd]2 [Fd]4 | %8
 A2 d4 | [Ed]2 [Ec]4 | [DA]2 [B,B]4 | [DB]2 [DA]4 | [B,G]2 [EA]4 | [DF]2 [CE]4 | [DF]2 [B,D]4 | %15
 [A,C]2 [A,D]4 |] %16
V:5
 x6 | x6 | D2 A,2 B,2 | x6 | B,2 D2 G2 | F2 E4 | x6 | x6 | E2 D2 F2 | x6 | x6 | x6 | x6 | x6 | x6 | %15
 x6 |] %16

